icons/wifi-off-fill.svg

<svg xmlns="http://www.w3.org/2000/svg" width="24" height="24" fill="none"><g clip-path="url(#a)"><g><path fill="#121212" d="M12 18C12.714 18 13.37 18.25 13.886 18.666L12 21L10.114 18.666C10.6474 18.2339 11.3135 17.9987 12 18ZM2.808 1.39301L20.485 19.071L19.071 20.485L15.389 16.805L15.142 17.111C14.2533 16.3908 13.1438 15.9985 12 16C10.8566 15.9985 9.74753 16.3904 8.859 17.11L6.974 14.776C8.28805 13.7115 9.90689 13.0929 11.596 13.01L9.823 11.238C8.31953 11.5724 6.91406 12.2508 5.717 13.22L3.83 10.887C4.9078 10.0142 6.11847 9.31975 7.416 8.83001L5.885 7.30001C4.69832 7.83072 3.58566 8.51344 2.575 9.33101L0.688995 6.99701C1.604 6.25701 2.592 5.60601 3.641 5.05501L1.393 2.80801L2.808 1.39301ZM16.084 11.87L12.216 8.00301L12 8.00001C15.095 8.00001 17.937 9.08101 20.17 10.887L18.284 13.221C17.6122 12.6772 16.8727 12.2227 16.084 11.869V11.87ZM12 3.00001C16.285 3.00001 20.22 4.49701 23.31 6.99701L21.426 9.33001C18.7597 7.17032 15.4312 5.99442 12 6.00001C11.428 6.00001 10.864 6.03201 10.31 6.09401L7.723 3.51101C9.094 3.17701 10.527 3.00001 12 3.00001Z"/></g></g><defs><clipPath id="a"><rect width="24" height="24" fill="white"/></clipPath></defs></svg>

<svg width="24" height="24" fill="none" xmlns="http://www.w3.org/2000/svg"><g clip-path="url(#a)"><path d="M12 18c.714 0 1.37.25 1.886.666L12 21l-1.886-2.334A2.987 2.987 0 0 1 12 18ZM2.808 1.393l17.677 17.678-1.414 1.414-3.682-3.68-.247.306A4.98 4.98 0 0 0 12 16a4.98 4.98 0 0 0-3.141 1.11l-1.885-2.334a7.963 7.963 0 0 1 4.622-1.766l-1.773-1.772a9.962 9.962 0 0 0-4.106 1.982L3.83 10.887A12.983 12.983 0 0 1 7.416 8.83L5.885 7.3a15 15 0 0 0-3.31 2.031L.689 6.997a18.018 18.018 0 0 1 2.952-1.942L1.393 2.808l1.415-1.415ZM16.084 11.87l-3.868-3.867L12 8c3.095 0 5.937 1.081 8.17 2.887l-1.886 2.334a10.001 10.001 0 0 0-2.2-1.352v.001ZM12 3c4.285 0 8.22 1.497 11.31 3.997L21.426 9.33A14.937 14.937 0 0 0 12 6c-.572 0-1.136.032-1.69.094L7.723 3.511A18.054 18.054 0 0 1 12 3Z" /></g><defs><clipPath id="a"><path fill="#fff" d="M0 0h24v24H0z"/></clipPath></defs></svg>
